X:1
T:Quando Madonna
T:Quando Madonna
T:Jhan Gero
T:Source : Trium vocum cantiones---Nürnberg---J.Petreius---1541. Editor: André Vierendeels (23/09/16).
T:Notes : Original clefs : C3, C5, F4 Editorial accidentals above the staff Original note values have been halved Square brackets indicate ligatures
T:©
T:©
T:©
T:©
T:©
C:Jhan Gero
Z:©
%%score [ 1 2 3 ]
L:1/8
Q:1/4=85
M:2/2
K:F
V:1 treble-8 nm="Tenor 1" snm="T 1"
V:2 treble-8 nm="Tenor 2" snm="T 2"
V:3 bass nm="Bass" snm="B"
V:1
 c4 c2 B2 | A2 A2 d4- | d2 c2 B2 A2 | G8 | F6 F2 | G2 A2 B2 G2 | A2 c2 d2 e2 | f6 ed | e4 d4- | %9
w: Quan- do Ma-|don- na gli'a-|* mo- ro- si|sguar-|di, so-|ven- te mi me-|gat' io re- sto|pri- * *|vo, di|
 d4 f4 | c4 d4 | c2 A2 B4 | c8 | z2 c2 c2 c2 | A2 A2 F4 | c4 d4 | e4 f4- | f2 ed e4- | e4 z2 c2 | %19
w: _ vi-|ta e-|non pur mo-|ro,|spe- ran- do|pur al fin|quant- on-|que tar-|* * * di,|_ ri-|
 c2 c2 f4- | f2 e2 d2 c2 | B2 A2 G4 | F8 | z4 c4 | c2 c2 f4- | f2 e2 d2 c2 | B2 A2 G4 | F4 c4 | %28
w: tro- var pac'|_ al gra- ve|mio mar- to-|ro,|ri-|tro- var pac'|_ al gra- ve|mio mar- to-|ro, con-|
 c6 c2 | d2 e2 f4 | e2 g3 fed | c8- | c8 | z4 c4 | c2 c2 B2 B2 | A2 F2 A2 A2 | G4 G2 c2 | %37
w: s'in spe|me vi- *||vo,|_|e|piu cru- del ogn'|hor mi vi mo-|stra- te, e'n|
 c2 c2 A2 c2 | cBGA BAGF | G4 FGAB | cdec de f2- | f2 e2 f4- | f4 z4 | z4 f4 | e2 c2 d2 e2 | %45
w: voi spen- t'e pi-|e- * * * * * * *|ta- * * * *||* * de,|_|et|io spe- rand' e'a-|
 f2 d2 e2 f2 | d4 c4- | c8 | z4 e4 | f2 f2 d4 | c4 z2 e2 | f2 f2 e2 e2 | d4 c4 | de f4 e2 | f8- | %55
w: man- do mi con-|su- mo,|_|qual|cer' a'l fo-|co, et|qual al ven- to|fu- *||mo.|
 f8- | f8- | f8 |] %58
w: _|||
V:2
 F4 F2 D2 | C2 C2 D3 E | F2 G4 F2- | F2 ED E4 | F4 D4 | D2 C2 D2 E2 | F2 G2 A2 c2- | c2 B2 c4 | %8
w: Quan- do Ma-|don- na gli'a- mo-|ro- si sguar-||di, so-|ven- te mi me|gat' io re- sto|_ pri- vo,|
 G4 B4 | F4 A4 | G2 A3 G G2- | G2 F2 G4 | z2 G2 G2 G2 | E2 E2 C4 | c4 A4- | A2 A2 B2 d2- | %16
w: di vi-|t'e non|pur mo- * *|* * ro,|spe- ran- do|pur al fin|quant- on-|* que tar- *|
 dc c4 B2 | c4 z2 A2 | A2 A2 c4- | c2 B2 A2 G2 | F2 G4 C2 | DE F4 E2 | F4 z2 A2 | A2 A2 c4- | %24
w: |di, ri-|tro- var pac'|_ al gra- ve|mio mar- to-||ro, ri-|tro- var pac'|
 c2 B2 A2 G2 | F2 G4 C2 | DE F4 E2 | F4 A4 | A6 A2 | A2 A2 B4 | G4 z2 G2 | G2 G2 F2 F2 | %32
w: _ al gra- ve|mio mar- *|* * to- *|ro, co-|s'in spe-|me vi- *|vo, et|piu cru- del ogn'|
 E2 C2 E2 E2 | D4 C3 D | E2 F4 E2 | F3 E/D/ C2 D2 | EF G3 FED | E2 F2 C4 | z4 z2 c2 | %39
w: hor mi vi mo-|stra- * *||te, _ _ _ mi|vi _ mon- * * *|* stra- te,|e'n|
 c2 c2 A2 c2- | cB/A/GA BAGF | G4 F4 | z4 c4 | B2 G2 A2 B2 | c2 A2 B2 c2 | A2 d3 c c2- | %46
w: voi spent' e pie-||ta- de,|et|io spe- rand' e|a- man- do mi|con su- * *|
"^-natural" c2 B2 c4- | c4 z2 A2 | B2 B2 G4 | F4 z2 D2 | F2 F2 E2 E2 | D4 C2 c2 | B2 B2 A4 | %53
w: * * mo,|_ qual|cer' al fo-|co, et|qual al ven- to|fu- mo, et|qual al ven-|
 B3 A G4 | F4 z2 A2 | A2 A2 B2 c2 | d4 c4- | c8 |] %58
w: to _ fu-|mo, et|qual al ven- to|fu- mo.|_|
V:3
 F,,4 F,,2 G,,2 | A,,2 A,,2 B,,4- | B,,2 B,,2 B,,4 | C,4 C,4 | F,,4 B,,4 | B,,2 A,,2 G,,2 G,,2 | %6
w: Quan- do Ma-|don- na gli'a-|* mo- ro-|si sguar-|di, so-|ven- * te me|
 F,,2 C,2 F,2 E,2 | D,4 C,4- | C,4 G,,4 | B,,4 F,,4 | C,4 B,,2 G,,2 | A,,4 G,,4 | C,4 C,4- | %13
w: gat' io re- sto|pri- vo,|_ di|vi- ta,|e non pur|mo- ro,|spe- ran-|
 C,2 C,2 A,,2 A,,2 | F,,8 | F,4 D,2 G,2 | E,3 D,/C,/ D,4 | C,8 | z2 C,2 C,2 C,2 | F,6 E,2 | %20
w: * do pur al|fin|quant- on- que|tar- * * *|di,|ri- tro- var|pa- ce'al|
 D,2 C,2 B,,2 A,,2 | G,,2 F,,2 C,4 | F,,8 | z2 C,2 C,2 C,2 | F,6 E,2 | D,2 C,2 B,,2 A,,2 | %26
w: gra- ve mio mar-|to- * *|ro,|ri- tr- var|pa- ce'al|gra- ve mio mar-|
 G,,2 F,,2 C,4 | F,,4 F,4 | F,6 F,2 | D,2 C,2 B,,4 | C,8- | C,4 z4 | C,4 C,2 C,2 | %33
w: to- * *|ro, co-|s'in spe-|me vi- *|vo,|_|et piu cru-|
 B,,2 B,,2 A,,2 F,,2 | A,,2 A,,2 G,,4 | F,,8 | C,4 C,2 C,2 | A,,2 F,,3 G,,A,,B,, | %38
w: del ogn' hor mi|vi mo- stra-|te,|e'n voi spent'|e pie- * * *|
 C,D,E,C, D,E, F,2- | F,2 E,2 F,4- | F,2 E,2 D,4 | C,4 F,,4 | F,4 E,2 C,2 | D,2 E,2 F,2 D,2 | %44
w: |* * ta-||* de,,|et io dpe-|rand' e a- man-|
 E,2 F,2 D,2 C,2 | F,2 G,4 F,2 | G,4 C,4 | z2 E,2 F,2 F,2 | D,4 C,4 | F,,4 B,,2 B,,2 | %50
w: do mi con- su-||* mo,|qual cer' a'l|fo- co,|et qual al|
 A,,2 A,,2 G,,4 | F,,3 G,, A,,B,,C,A,, | B,,C,D,E, F,4 | B,,4 C,4 | F,,4 z2 F,,2 | %55
w: ven- to fu-||||co, et|
 F,,2 F,,2 B,,2 A,,2 | B,,4 F,,4- | F,,8 |] %58
w: qual al ven- to|fu- mo.|_|

